svg/dots_hexagon.svg

<svg xmlns="http://www.w3.org/2000/svg" viewBox="0 0 24 24"><path d="M16 12c0-1.1.9-2 2-2s2 .9 2 2-.9 2-2 2-2-.9-2-2m-6 0c0-1.1.9-2 2-2s2 .9 2 2-.9 2-2 2-2-.9-2-2m-6 0c0-1.1.9-2 2-2s2 .9 2 2-.9 2-2 2-2-.9-2-2m9 6c0-1.1.9-2 2-2s2 .9 2 2-.9 2-2 2-2-.9-2-2m-6 0c0-1.1.9-2 2-2s2 .9 2 2-.9 2-2 2-2-.9-2-2m6-12c0-1.1.9-2 2-2s2 .9 2 2-.9 2-2 2-2-.9-2-2M7 6c0-1.1.9-2 2-2s2 .9 2 2-.9 2-2 2-2-.9-2-2"/></svg>

<?xml version="1.0" encoding="UTF-8"?><!DOCTYPE svg PUBLIC "-//W3C//DTD SVG 1.1//EN" "http://www.w3.org/Graphics/SVG/1.1/DTD/svg11.dtd"><svg xmlns="http://www.w3.org/2000/svg" xmlns:xlink="http://www.w3.org/1999/xlink" version="1.1" id="mdi-dots-hexagon" width="24" height="24" viewBox="0 0 24 24"><path d="M16 12C16 10.9 16.9 10 18 10S20 10.9 20 12 19.1 14 18 14 16 13.1 16 12M10 12C10 10.9 10.9 10 12 10S14 10.9 14 12 13.1 14 12 14 10 13.1 10 12M4 12C4 10.9 4.9 10 6 10S8 10.9 8 12 7.1 14 6 14 4 13.1 4 12M13 18C13 16.9 13.9 16 15 16S17 16.9 17 18 16.1 20 15 20 13 19.1 13 18M7 18C7 16.9 7.9 16 9 16S11 16.9 11 18 10.1 20 9 20 7 19.1 7 18M13 6C13 4.9 13.9 4 15 4S17 4.9 17 6 16.1 8 15 8 13 7.1 13 6M7 6C7 4.9 7.9 4 9 4S11 4.9 11 6 10.1 8 9 8 7 7.1 7 6" /></svg>
